src/status/22/thunderbird-attention-panel.svg

<svg width="22" height="22" version="1.1" viewBox="0 0 22 22" xmlns="http://www.w3.org/2000/svg">
 <g id="surface1">
  <path d="m6.449219 18.523438c-0.777344-1.597657-0.960938-2.496094-0.960938-2.496094s1.097657 1.144531 2.21875 1.207031l-1.261719-1.828125s-2.988281-1-3.792968-1.332031c0.371094 3.183593 3.796875 4.453125 3.796875 4.453125z" style="fill:rgb(36.862746%,50.588238%,67.450982%)"/>
  <path d="m2.503906 14.582031 12.679688 4.152344 3.539062-9.835937-15.195312-2.792969c-1.839844 1.359375-1.023438 8.476562-1.023438 8.476562z" style="fill:rgb(53.333336%,75.294119%,81.568629%)"/>
  <path transform="scale(1.732225)" d="m1.445486 8.418093 7.319885 2.397116 1.858159-5.407604-6.15628 2.164845-2.615856-3.777205c-1.059872 0.784757-0.405908 4.622848-0.405908 4.622848z" style="fill:none;stroke-width:.1688;stroke:rgb(47.843137%,53.333336%,63.137257%)"/>
  <path d="m9.628906 1.652344c-0.933594 0.050781-1.96875 0.597656-2.785156 1.507812-3.023438 1.351563-4.433594 3.453125-5.007812 5.417969-1.273438 4.371094 1.300781 8.914063 4.613281 9.945313-3.875-1.90625-3.972657-5.546876-3.910157-7.449219 0.386719 0.582031 1.15625 0.652343 1.15625 0.652343-0.085937-0.136718-0.160156-0.265624-0.230468-0.394531-0.257813-0.636719-0.453125-1.773437-0.132813-2.796875 0.195313-0.644531 0.847657-1.554687 1.722657-1.835937 0.0625 0.476562 0.21875 0.910156 0.113281 1.417969-0.582031 1.007812 0.027343 1.683593 0.027343 1.683593 0.804688-0.886719 1.003907-0.734375 1.75-1.164062 0.851563-0.488281 1.621094-1.019531 1.90625-0.984375 1.144532-0.164063 1.6875 0.128906 2.9375 0.355468 0.800782 0.144532 1.660157 0.253907 2.332032 0.332032 0.285156 0.640625 0.429687 1.300781 0.484375 1.917968 0 0 0.1875 2.046876-0.4375 3.246094 0.496093-0.28125 0.886719-0.597656 1.191406-0.910156 0.066406 1.703125-1.175781 3.09375-1.175781 3.09375 0.472656-0.144531 0.859375-0.304688 1.1875-0.464844-0.203125 1.117188-1.015625 3.429688-4.226563 4.960938 2.652344-0.335938 3.734375-1.621094 3.734375-1.621094s-0.242187 0.886719-1.847656 1.785156c5.632812-1.027344 7.136719-6.199218 7.136719-6.199218 0-0.007813-0.003907-0.007813-0.003907-0.011719 0.792969-2.492188 0.035157-5.554688-0.953124-7.257813-0.585938-1.019531-1.460938-1.882812-2.003907-2.367187-0.085937-0.082031-0.171875-0.148438-0.257812-0.226563-0.148438-0.121094-0.246094-0.199218-0.246094-0.199218l-0.003906 0.011718c-0.082031-0.058594-0.15625-0.113281-0.242188-0.164062-0.898437-0.621094-1.914062-1-2.445312-1.117188-2.011719-0.75-3.425781-0.609375-4.34375-0.515625 0 0 0.042969-0.09375 0.1875-0.214843 0.003906-0.007813 0.011719-0.011719 0.015625-0.019532 0.007812 0 0.007812-0.003906 0.007812-0.003906 0.015625-0.011719 0.03125-0.019531 0.046875-0.03125 0.015625-0.015625 0.019531-0.023438 0.019531-0.023438-0.390624-0.019531-1.023437 0.410157-1.183593 0.496094 0.003906-0.007812 0.003906-0.011718 0.003906-0.015625 0.003906 0 0.003906-0.007812 0.003906-0.007812 0.007813-0.015625 0.011719-0.03125 0.023438-0.046875 0.003906-0.011719 0.011719-0.023438 0.015625-0.039063 0.011718-0.007812 0.015625-0.019531 0.027344-0.03125 0-0.003906 0-0.003906 0.003906-0.003906 0.011718-0.015625 0.023437-0.039063 0.03125-0.050781 0-0.003906 0.007812-0.003906 0.007812-0.003906 0-0.003907 0-0.003907 0.003906-0.011719l0.007813-0.003907c0.203125-0.257812 0.589844-0.53125 0.703125-0.613281h0.003906c0.015625-0.015625 0.03125-0.019531 0.03125-0.019531z" style="fill:rgb(36.862746%,50.588238%,67.450982%)"/>
 </g>
</svg>

<svg xmlns="http://www.w3.org/2000/svg" xmlns:xlink="http://www.w3.org/1999/xlink" width="22" height="22" viewBox="0 0 22 22" version="1.1">
<g id="surface1">
<path style=" stroke:none;fill-rule:nonzero;fill:rgb(36.862746%,50.588238%,67.450982%);fill-opacity:1;" d="M 6.449219 18.523438 C 5.671875 16.925781 5.488281 16.027344 5.488281 16.027344 C 5.488281 16.027344 6.585938 17.171875 7.707031 17.234375 L 6.445312 15.40625 C 6.445312 15.40625 3.457031 14.40625 2.652344 14.074219 C 3.023438 17.257812 6.449219 18.527344 6.449219 18.527344 Z M 6.449219 18.523438 "/>
<path style=" stroke:none;fill-rule:nonzero;fill:rgb(53.333336%,75.294119%,81.568629%);fill-opacity:1;" d="M 2.503906 14.582031 L 15.183594 18.734375 L 18.722656 8.898438 L 3.527344 6.105469 C 1.6875 7.464844 2.503906 14.582031 2.503906 14.582031 Z M 2.503906 14.582031 "/>
<path style="fill:none;stroke-width:0.1688;stroke-linecap:butt;stroke-linejoin:miter;stroke:rgb(47.843137%,53.333336%,63.137257%);stroke-opacity:1;stroke-miterlimit:4;" d="M 1.445486 8.418093 L 8.765371 10.815209 L 10.62353 5.407605 L 4.46725 7.57245 L 1.851394 3.795245 C 0.791522 4.580002 1.445486 8.418093 1.445486 8.418093 Z M 1.445486 8.418093 " transform="matrix(1.732225,0,0,1.732225,0,0)"/>
<path style=" stroke:none;fill-rule:nonzero;fill:rgb(36.862746%,50.588238%,67.450982%);fill-opacity:1;" d="M 9.628906 1.652344 C 8.695312 1.703125 7.660156 2.25 6.84375 3.160156 C 3.820312 4.511719 2.410156 6.613281 1.835938 8.578125 C 0.5625 12.949219 3.136719 17.492188 6.449219 18.523438 C 2.574219 16.617188 2.476562 12.976562 2.539062 11.074219 C 2.925781 11.65625 3.695312 11.726562 3.695312 11.726562 C 3.609375 11.589844 3.535156 11.460938 3.464844 11.332031 C 3.207031 10.695312 3.011719 9.558594 3.332031 8.535156 C 3.527344 7.890625 4.179688 6.980469 5.054688 6.699219 C 5.117188 7.175781 5.273438 7.609375 5.167969 8.117188 C 4.585938 9.125 5.195312 9.800781 5.195312 9.800781 C 6 8.914062 6.199219 9.066406 6.945312 8.636719 C 7.796875 8.148438 8.566406 7.617188 8.851562 7.652344 C 9.996094 7.488281 10.539062 7.78125 11.789062 8.007812 C 12.589844 8.152344 13.449219 8.261719 14.121094 8.339844 C 14.40625 8.980469 14.550781 9.640625 14.605469 10.257812 C 14.605469 10.257812 14.792969 12.304688 14.167969 13.503906 C 14.664062 13.222656 15.054688 12.90625 15.359375 12.59375 C 15.425781 14.296875 14.183594 15.6875 14.183594 15.6875 C 14.65625 15.542969 15.042969 15.382812 15.371094 15.222656 C 15.167969 16.339844 14.355469 18.652344 11.144531 20.183594 C 13.796875 19.847656 14.878906 18.5625 14.878906 18.5625 C 14.878906 18.5625 14.636719 19.449219 13.03125 20.347656 C 18.664062 19.320312 20.167969 14.148438 20.167969 14.148438 C 20.167969 14.140625 20.164062 14.140625 20.164062 14.136719 C 20.957031 11.644531 20.199219 8.582031 19.210938 6.878906 C 18.625 5.859375 17.75 4.996094 17.207031 4.511719 C 17.121094 4.429688 17.035156 4.363281 16.949219 4.285156 C 16.800781 4.164062 16.703125 4.085938 16.703125 4.085938 L 16.699219 4.097656 C 16.617188 4.039062 16.542969 3.984375 16.457031 3.933594 C 15.558594 3.3125 14.542969 2.933594 14.011719 2.816406 C 12 2.066406 10.585938 2.207031 9.667969 2.300781 C 9.667969 2.300781 9.710938 2.207031 9.855469 2.085938 C 9.859375 2.078125 9.867188 2.074219 9.871094 2.066406 C 9.878906 2.066406 9.878906 2.0625 9.878906 2.0625 C 9.894531 2.050781 9.910156 2.042969 9.925781 2.03125 C 9.941406 2.015625 9.945312 2.007812 9.945312 2.007812 C 9.554688 1.988281 8.921875 2.417969 8.761719 2.503906 C 8.765625 2.496094 8.765625 2.492188 8.765625 2.488281 C 8.769531 2.488281 8.769531 2.480469 8.769531 2.480469 C 8.777344 2.464844 8.78125 2.449219 8.792969 2.433594 C 8.796875 2.421875 8.804688 2.410156 8.808594 2.394531 C 8.820312 2.386719 8.824219 2.375 8.835938 2.363281 C 8.835938 2.359375 8.835938 2.359375 8.839844 2.359375 C 8.851562 2.34375 8.863281 2.320312 8.871094 2.308594 C 8.871094 2.304688 8.878906 2.304688 8.878906 2.304688 C 8.878906 2.300781 8.878906 2.300781 8.882812 2.292969 L 8.890625 2.289062 C 9.09375 2.03125 9.480469 1.757812 9.59375 1.675781 L 9.597656 1.675781 C 9.613281 1.660156 9.628906 1.65625 9.628906 1.65625 Z M 9.628906 1.652344 "/>
</g>
</svg>
